static/images/pieces/shogun/cburnett/blue/bF.svg

<svg height="45" width="45" xmlns="http://www.w3.org/2000/svg"><g fill-rule="evenodd" stroke="#000" stroke-linecap="round" stroke-linejoin="round" stroke-width="1.5" transform="translate(0 3)"><g stroke="none"><circle cx="6" cy="12" r="2.75"/><circle cx="22.5" cy="8" r="2.75"/><circle cx="39" cy="12" r="2.75"/></g><path d="m9 26c8.5-1.5 21-1.5 27 0l2.5-12.5-7.5 11.5-2-5-3.5 4.5-3-14.5-3 14.5-3.5-4.5-2 5-7.5-11.5z" stroke-linecap="butt"/><path d="m9 26c0 2 1.5 2 2.5 4 1 1.5 1 1 .5 3.5-1.5 1-1.5 2.5-1.5 2.5h23.5s.5-1.5-1-2.5c-.5-2.5-.5-2 .5-3.5 1-2 2.5-2 2.5-4-8.5-1.5-18.5-1.5-27 0z" stroke-linecap="butt"/><path d="m11 29c7.44776-2.590974 15.55224-2.590974 23 0m-21.5 2.5c6.946703-1.120144 13.557044-.894841 20 0" fill="none" stroke="#ececec"/></g></svg>

<?xml version="1.0" encoding="UTF-8" standalone="no"?>
<svg
   xmlns:dc="http://purl.org/dc/elements/1.1/"
   xmlns:cc="http://creativecommons.org/ns#"
   xmlns:rdf="http://www.w3.org/1999/02/22-rdf-syntax-ns#"
   xmlns:svg="http://www.w3.org/2000/svg"
   xmlns="http://www.w3.org/2000/svg"
   xmlns:sodipodi="http://sodipodi.sourceforge.net/DTD/sodipodi-0.dtd"
   xmlns:inkscape="http://www.inkscape.org/namespaces/inkscape"
   width="45"
   height="45"
   version="1.1"
   id="svg10994"
   sodipodi:docname="bF.svg"
   inkscape:version="1.0.1 (3bc2e813f5, 2020-09-07)">
  <metadata
     id="metadata11000">
    <rdf:RDF>
      <cc:Work
         rdf:about="">
        <dc:format>image/svg+xml</dc:format>
        <dc:type
           rdf:resource="http://purl.org/dc/dcmitype/StillImage" />
        <dc:title></dc:title>
      </cc:Work>
    </rdf:RDF>
  </metadata>
  <defs
     id="defs10998" />
  <sodipodi:namedview
     pagecolor="#ffffff"
     bordercolor="#666666"
     borderopacity="1"
     objecttolerance="10"
     gridtolerance="10"
     guidetolerance="10"
     inkscape:pageopacity="0"
     inkscape:pageshadow="2"
     inkscape:window-width="1805"
     inkscape:window-height="1668"
     id="namedview10996"
     showgrid="false"
     inkscape:zoom="11.2"
     inkscape:cx="16.861731"
     inkscape:cy="0.18826962"
     inkscape:window-x="1499"
     inkscape:window-y="114"
     inkscape:window-maximized="0"
     inkscape:current-layer="svg10994" />
  <g
     fill-rule="evenodd"
     stroke="#000000"
     stroke-width="1.5"
     stroke-linecap="round"
     stroke-linejoin="round"
     id="g10992"
     transform="translate(0,3)">
    <g
       stroke="none"
       id="g10982">
      <circle
         cx="6"
         cy="12"
         r="2.75"
         id="circle10972" />
      <circle
         cx="22.5"
         cy="8"
         r="2.75"
         id="circle10976" />
      <circle
         cx="39"
         cy="12"
         r="2.75"
         id="circle10980" />
    </g>
    <path
       d="m 9,26 c 8.5,-1.5 21,-1.5 27,0 L 38.5,13.5 31,25 29,20 25.5,24.5 22.5,10 19.5,24.5 16,20 14,25 6.5,13.5 Z"
       stroke-linecap="butt"
       id="path10984"
       sodipodi:nodetypes="cccccccccccc" />
    <path
       d="m 9,26 c 0,2 1.5,2 2.5,4 1,1.5 1,1 0.5,3.5 -1.5,1 -1.5,2.5 -1.5,2.5 H 34 c 0,0 0.5,-1.5 -1,-2.5 -0.5,-2.5 -0.5,-2 0.5,-3.5 1,-2 2.5,-2 2.5,-4 -8.5,-1.5 -18.5,-1.5 -27,0 z"
       stroke-linecap="butt"
       id="path10986"
       sodipodi:nodetypes="ccccccccc" />
    <path
       d="m 11,29 c 7.44776,-2.590974 15.55224,-2.590974 23,0 m -21.5,2.5 c 6.946703,-1.120144 13.557044,-0.894841 20,0"
       fill="none"
       stroke="#ececec"
       id="path10990"
       sodipodi:nodetypes="cccc" />
  </g>
</svg>
